icons/emergency_post.svg

<svg width="48" height="48" viewBox="0 0 48 48" fill="none" xmlns="http://www.w3.org/2000/svg">
<path d="M19.7575 32.9704C19.2217 32.8364 18.8959 32.2935 19.0299 31.7577L19.7193 29H17C16.4477 29 16 28.5523 16 28C16 27.4477 16.4477 27 17 27H20.2193L21.0299 23.7577C21.1638 23.2219 21.7067 22.8961 22.2425 23.0301C22.7783 23.164 23.1041 23.707 22.9701 24.2428L22.2808 27H25C25.5523 27 26 27.4477 26 28C26 28.5523 25.5523 29 25 29H21.7808L20.9701 32.2428C20.8362 32.7786 20.2933 33.1043 19.7575 32.9704Z" fill="black"/>
<path fill-rule="evenodd" clip-rule="evenodd" d="M9.01446 20.138C9.40179 18.869 10.5901 18 11.9381 18H36V16H29V10H38V18.9623L43.9349 32.6489C44.1322 33.166 43.8657 33.7424 43.3395 33.9363C43.3241 33.942 43.3086 33.9473 43.293 33.9522L43.2941 33.9557L33.5 37L34.5 34.5L41.592 32.3776L36.9848 22.1289L32.1825 35.862C31.7952 37.131 30.6069 38 29.2589 38H7.05433C5.00969 38 3.54321 36.0628 4.13073 34.138L9.01446 20.138ZM6.03573 34.7491L10.9158 20.7595L10.9273 20.7218C11.0522 20.3128 11.4503 20 11.9381 20H35.6105L30.2814 35.2398L30.2697 35.2782C30.1448 35.6872 29.7467 36 29.2589 36H7.05433C6.31672 36 5.87591 35.3365 6.03573 34.7491ZM36 12H31V14H36V12Z" fill="black"/>
</svg>

<svg
  xmlns="http://www.w3.org/2000/svg"
  width="24"
  height="24"
  viewBox="0 0 24 24"
  fill="none"
  stroke="currentColor"
  stroke-width="2"
  stroke-linecap="round"
  stroke-linejoin="round"
>
  <path d="M19.758 32.97a1 1 0 0 1-.728-1.212L19.72 29H17a1 1 0 1 1 0-2h3.22l.81-3.242a1 1 0 1 1 1.94.485L22.28 27H25a1 1 0 1 1 0 2h-3.22l-.81 3.243a1 1 0 0 1-1.212.727" />
  <path
    fill-rule="evenodd"
    d="M9.014 20.138C9.402 18.869 10.59 18 11.938 18H36v-2h-7v-6h9v8.962l5.935 13.687a.995.995 0 0 1-.642 1.303l.001.004L33.5 37l1-2.5 7.092-2.122-4.607-10.25-4.803 13.734C31.795 37.131 30.607 38 29.26 38H7.054c-2.044 0-3.51-1.937-2.923-3.862zM6.036 34.749l4.88-13.99.011-.037A1.05 1.05 0 0 1 11.938 20h23.673l-5.33 15.24-.011.038a1.05 1.05 0 0 1-1.011.722H7.054c-.737 0-1.178-.663-1.018-1.25M36 12h-5v2h5z"
    clip-rule="evenodd"
  />
</svg>
